X:711
L:1/8
M:2/4
K:C
"C" E3 C | (Ec) (BA) |"G7" (GB,) (DG) | B,4 | (GB,) (DG) | B,4 |"C" (GC) (EG) | C4 | E3 C | 
 (Ec) (BA) |"G7" (GB,) DG | B,4 | (GB,) (DG) | B,3 D |"C" C2"G7" B,2 |"C" CC/C/ .C2 ::"C" A3 G | 
 (EG) (CG) |"G7" (B,G) F2 | z c B>A | A3 G | (FG) (DG) |"C" (CG) E2 | z c B>A | A3 G | (EG) (CG) | 
"G7" (B,G) F2 | z c B>A | A3 G | (FG) (DG) |"C" C2"G7" B,2 |"C" CC/C/ .C2 ::[K:F]"F" A3 (B/A/) | 
 (G2 F2) |"C7" B3 B | .E2 .E2 | B4 | A2 G2 |"F" c3 c | .F2 .F2 | A4 | B2 A2 |"Bb" d3 d | .G2 .G2 | 
"C7" B3 E | BE BE |"F" F2"C7" CD/E/ |"F" FA .F2 :|

